X: 1
T: Padstow May Song
O: Trad
Z: 1997 by John Chambers <jc@trillian.mit.edu>
N: For Mayday rituals.
M: 2/4
L: 1/8
K: G
P: Fast
D \
| "G"D2 "D7"EF | "G"G2 "D7"A2 | "G"G>F GF | G2 DD | "C"EE "D7"FF | "G"G2 DB, | "D7"A,3 F |
| ED GA | "G"G2 "D7"FD | "G"G>D GB | d2 cB | "C"AB c2 | "D7"B2 AF | "G"G4- | G2 z :|
P: Slow
M: 3/4
L: 1/4
|: D | "G"GGG | G2D | GAB | "D7"A2B | "C"EFG | "(Am)"AHE ","A | "D7"ABc | BAF | "G"G2 :|
